X: 62
M: C|
L: 1/16
K: A
|:\
d3ed3f fedc a3c | B3c dcBA AF3F2 :|
|: f2 |\
fedc a3cb3c a4 | fedc a3g f3ed3c |\
f2ed a3c b3c a4 | fedc a3g f3ed3c |\
dcde fefg agfe fedc | BABc dcBA AF3FA3 H:|

